X:1
T: Hull's (R-169; \251John Morris Rankin)
M: 4/4
L: 1/8
R: reel
F:
K: Emaj
ec |:\
"E"BE E/E/E B2 Ac | "E"BE E/E/E "A"cBce |\
"E"BE E/E/E B2 AB | "A"cBce "B7"fefg |
"E"BE E/E/E B2 Ac | "E"BE E/E/E "A"cBce |\
"F#min"fgfe c2Bc | "A"efec "B7"Be :|
ef |:\
"E"gB B/B/B "E/B"g2fg | "A"fc c/c/c c2Bc |\
"F#min"fc c/c/c c2Bc | "B7"eB B/B/B Bcef |
"E"gB B/B/B "E/B"g2fg | "A"fc c/c/c c2Bc |\
"F#min"fgfe c2Bc | "A"efec "B7"Be :|\
["Ending" "E"e[cf] | [B2e2g2] |]
